X: 652
T: Admiral Nelson
R: hornpipe
M: 4/4
K: Fmajor
|:cB|A2 F2 FAGF|EG B2 BdcB|Acde fagf|e2 c2 cdcB|
A2 F2 FAGF|EG B2 BdcB|Acdf ecdB|A2 F2 F4:|
|:(3cde|fcAc fagf|gece gbag|afge fdgf|e2 c2 c2 fe|
dcBA B2 gf|edcB A2 (3cde|fcdA BGcB|A2 F2 F4:|

